Origami/22x22/apps/adventure-capitalist.svg

<svg width="22" height="22" version="1.1" xmlns="http://www.w3.org/2000/svg">
 <path d="m8 2.4786363 0.083008 0.00196s-1.371085-0.1007791-2.8427735 0.4306641c-0.7358445 0.2657147-1.5451827 0.7083667-2.1875001 1.4755792-0.6423175 0.7672125-1.0527344 1.854297-1.0527344 3.091797s0.4104169 2.3245847 1.0527344 3.0917964c0.6423175 0.767213 1.4516556 1.209864 2.1875001 1.475586 1.4716885 0.531443 2.8427735 0.430664 2.8427735 0.430664l-0.083008 0.001953h6a1.50015 1.50015 0 0 0 0.08301 -0.0019s0.878915-0.02422 1.657226 0.256836c0.389156 0.140528 0.704818 0.338502 0.90625 0.579102 0.201431 0.240547 0.353514 0.528462 0.353514 1.165962s-0.152083 0.925416-0.353516 1.166016c-0.201432 0.2406-0.517094 0.438573-0.90625 0.579101-0.778311 0.281057-1.657226 0.256836-1.657226 0.256836a1.50015 1.50015 0 0 0 -0.083008 -0.001953h-8.5a1.50015 1.50015 0 1 0 0 3h8.5l-0.08301-2e-3s1.371085 0.100779 2.842773-0.430664c0.735845-0.265722 1.545183-0.708373 2.1875-1.475586 0.64232-0.767165 1.052737-1.85425 1.052737-3.09175s-0.410417-2.324584-1.052735-3.091797c-0.642317-0.767212-1.451655-1.209864-2.1875-1.4755857-1.471688-0.531443-2.842773-0.430664-2.842773-0.430664l0.08301-2e-3h-6a1.50015 1.50015 0 0 0 -0.083008 2e-3s-0.878915 0.02422-1.6572265-0.256836c-0.3891575-0.140531-0.7048195-0.3385042-0.906252-0.5791042-0.2014325-0.240597-0.3535155-0.5285125-0.3535155-1.1660125s0.152083-0.9254155 0.3535155-1.1660155 0.5170945-0.4385735 0.90625-0.5791015c0.7783115-0.281057 1.6572265-0.256836 1.6572265-0.256836a1.50015 1.50015 0 0 0 0.083008 0.001953h8.5a1.50015 1.50015 0 1 0 0 -3.0000003h-8.5z" style="opacity:.2"/>
 <path d="m11.477693 0.45715187a1.50015 1.50015 0 0 0 -1.477539 1.5214844v17 1a1.50015 1.50015 0 1 0 3 0v-1-17a1.50015 1.50015 0 0 0 -1.522461 -1.5214844z" style="fill-rule:evenodd;opacity:.2"/>
 <path d="m5.5 17.4785h8.5s4.5 0.25 4.5-3.5-4.5-3.5-4.5-3.5h-6s-4.5 0.25-4.5-3.4999999c0-3.75 4.5-3.5 4.5-3.5h8.5" style="fill:none;stroke-linecap:round;stroke-linejoin:round;stroke-width:3;stroke:#ffc73a"/>
 <path d="m7.845703 1.9726407c-0.454603-0.0034327-1.501702 0.0398942-2.6054685 0.4384766-0.7358445 0.2657197-1.5451827 0.7083735-2.1875001 1.4755858-0.6423176 0.7672125-1.0527344 1.854297-1.0527344 3.091797 0 0.08461 0.00599 0.1668505 0.00977 0.25 0.051507-1.13299 0.4445678-2.12704 1.0429689-2.841797 0.6423129-0.7672125 1.4516511-1.2098661 2.1874956-1.4755858 1.343011-0.4849764 2.5498305-0.4435858 2.7597655-0.4326172h8.5a1.50015 1.50015 0 0 1 1.499023 1.253906 1.50015 1.50015 0 0 0 -1.499023 -1.753906h-8.4765625c-0.031285-0.00183-0.064239-5e-3 -0.1777345-0.00586zm-2.8291015 5.2558594c-0.006488 0.080865-0.0166015 0.1544445-0.0166015 0.25 0 0.6375 0.152083 0.9254185 0.3535155 1.1660155 0.2014325 0.2406 0.5170945 0.4385737 0.90625 0.5791017 0.7783115 0.281056 1.6572265 0.256836 1.6572265 0.256836a1.50015 1.50015 0 0 1 0.083008 -0.001953h5.984375c0.174895-0.0099 1.408174-0.0611 2.77539 0.432617 0.735845 0.2657217 1.545183 0.7083727 2.1875 1.4755857 0.598401 0.714757 0.991462 1.708807 1.042969 2.841797 0.00378-0.08315 0.009766-0.16539 0.009766-0.25 0-1.2375-0.410417-2.324585-1.052735-3.091797-0.642317-0.767213-1.451655-1.2098637-2.1875-1.4755857-1.379329-0.4980912-2.626602-0.4417667-2.783202-0.4326172h-5.976563a1.50015 1.50015 0 0 0 -0.083008 0.00195s-0.878915 0.02422-1.6572265-0.256836c-0.3891555-0.140528-0.7048175-0.3385015-0.90625-0.5791015-0.1712395-0.2045305-0.300118-0.4573855-0.336914-0.9160125zm11.966796 6.9999999c-0.0368 0.458627-0.165674 0.711479-0.336914 0.916015-0.201432 0.2406-0.517094 0.438574-0.90625 0.579102-0.778311 0.281057-1.657226 0.256836-1.657226 0.256836a1.50015 1.50015 0 0 0 -0.083008 -0.001953h-8.5a1.50015 1.50015 0 0 0 -1.4990235 1.746094 1.50015 1.50015 0 0 1 1.4990235 -1.246094h8.5a1.50015 1.50015 0 0 1 0.08301 2e-3s0.878915 0.02422 1.657226-0.256836c0.389156-0.140528 0.704818-0.338502 0.90625-0.579102 0.201431-0.240647 0.353514-0.528562 0.353514-1.166062 0-0.09556-0.01011-0.169135-0.0166-0.25z" style="fill:#ffffff;opacity:.2"/>
 <path d="m11.500154 1.4785001v17 1" style="fill:none;stroke-linecap:round;stroke-linejoin:round;stroke-width:3;stroke:#ffc73a"/>
 <path d="m11.477693-0.04298436a1.50015 1.50015 0 0 0 -1.477539 1.5214845v0.5a1.50015 1.50015 0 0 1 1.477539 -1.5214844 1.50015 1.50015 0 0 1 1.522461 1.5214844v-0.5a1.50015 1.50015 0 0 0 -1.522461 -1.5214845z" style="fill-rule:evenodd;fill:#ffffff;opacity:.2"/>
</svg>

<svg xmlns="http://www.w3.org/2000/svg" width="22" height="22" version="1.1">
 <path style="opacity:0.2" d="m 8,2.4786363 0.083008,0.00196 c 0,0 -1.371085,-0.1007791 -2.8427735,0.4306641 C 4.50439,3.1769751 3.6950518,3.6196271 3.0527344,4.3868396 2.4104169,5.1540521 2,6.2411366 2,7.4786366 c 0,1.2375 0.4104169,2.3245847 1.0527344,3.0917964 0.6423175,0.767213 1.4516556,1.209864 2.1875001,1.475586 1.4716885,0.531443 2.8427735,0.430664 2.8427735,0.430664 L 8,12.478636 l 6,0 a 1.50015,1.50015 0 0 0 0.08301,-0.0019 c 0,0 0.878915,-0.02422 1.657226,0.256836 0.389156,0.140528 0.704818,0.338502 0.90625,0.579102 C 16.847917,13.553221 17,13.841136 17,14.478636 c 0,0.6375 -0.152083,0.925416 -0.353516,1.166016 -0.201432,0.2406 -0.517094,0.438573 -0.90625,0.579101 -0.778311,0.281057 -1.657226,0.256836 -1.657226,0.256836 A 1.50015,1.50015 0 0 0 14,16.478636 l -8.5,0 a 1.50015,1.50015 0 1 0 0,3 l 8.5,0 -0.08301,-0.002 c 0,0 1.371085,0.100779 2.842773,-0.430664 0.735845,-0.265722 1.545183,-0.708373 2.1875,-1.475586 C 19.589583,16.803221 20,15.716136 20,14.478636 c 0,-1.2375 -0.410417,-2.324584 -1.052735,-3.091797 -0.642317,-0.767212 -1.451655,-1.209864 -2.1875,-1.4755857 -1.471688,-0.531443 -2.842773,-0.430664 -2.842773,-0.430664 l 0.08301,-0.002 -6,0 a 1.50015,1.50015 0 0 0 -0.083008,0.002 c 0,0 -0.878915,0.02422 -1.6572265,-0.256836 C 5.87061,9.0832223 5.554948,8.8852491 5.3535155,8.6446491 5.152083,8.4040521 5,8.1161366 5,7.4786366 5,6.8411366 5.152083,6.5532211 5.3535155,6.3126211 5.554948,6.0720211 5.87061,5.8740476 6.2597655,5.7335196 7.038077,5.4524626 7.916992,5.4766836 7.916992,5.4766836 A 1.50015,1.50015 0 0 0 8,5.4786366 l 8.5,0 a 1.50015,1.50015 0 1 0 0,-3.0000003 l -8.5,0 z"/>
 <path style="opacity:0.2;fill-rule:evenodd" d="M 11.477693,0.45715187 A 1.50015,1.50015 0 0 0 10.000154,1.9786363 l 0,16.9999997 0,1 a 1.50015,1.50015 0 1 0 3,0 l 0,-1 0,-16.9999997 A 1.50015,1.50015 0 0 0 11.477693,0.45715187 Z"/>
 <path style="fill:none;stroke:#ffc73a;stroke-width:3;stroke-linecap:round;stroke-linejoin:round" d="m 5.5,17.4785 8.5,0 c 0,0 4.5,0.25 4.5,-3.5 0,-3.75 -4.5,-3.5 -4.5,-3.5 l -6,0 c 0,0 -4.5,0.25 -4.5,-3.4999999 0,-3.75 4.5,-3.5 4.5,-3.5 l 8.5,0"/>
 <path style="opacity:0.2;fill:#ffffff" d="M 7.845703,1.9726407 C 7.3911,1.969208 6.344001,2.0125349 5.2402345,2.4111173 4.50439,2.676837 3.6950518,3.1194908 3.0527344,3.8867031 2.4104168,4.6539156 2,5.7410001 2,6.9785001 c 0,0.08461 0.00599,0.1668505 0.00977,0.25 0.051507,-1.13299 0.4445678,-2.12704 1.0429689,-2.841797 C 3.6950518,3.6194906 4.50439,3.176837 5.2402345,2.9111173 6.5832455,2.4261409 7.790065,2.4675315 8,2.4785001 l 8.5,0 A 1.50015,1.50015 0 0 1 17.999023,3.7324061 1.50015,1.50015 0 0 0 16.5,1.9785001 l -8.4765625,0 c -0.031285,-0.00183 -0.064239,-0.005 -0.1777345,-0.00586 z M 5.0166015,7.2285001 C 5.0101135,7.3093651 5,7.3829446 5,7.4785001 c 0,0.6375 0.152083,0.9254185 0.3535155,1.1660155 0.2014325,0.2406 0.5170945,0.4385737 0.90625,0.5791017 0.7783115,0.281056 1.6572265,0.256836 1.6572265,0.256836 A 1.50015,1.50015 0 0 1 8,9.4785003 l 5.984375,0 c 0.174895,-0.0099 1.408174,-0.0611 2.77539,0.432617 0.735845,0.2657217 1.545183,0.7083727 2.1875,1.4755857 0.598401,0.714757 0.991462,1.708807 1.042969,2.841797 C 19.994014,14.14535 20,14.06311 20,13.9785 20,12.741 19.589583,11.653915 18.947265,10.886703 18.304948,10.11949 17.49561,9.6768393 16.759765,9.4111173 15.380436,8.9130261 14.133163,8.9693506 13.976563,8.9785001 l -5.976563,0 a 1.50015,1.50015 0 0 0 -0.083008,0.00195 c 0,0 -0.878915,0.02422 -1.6572265,-0.256836 C 5.87061,8.5830861 5.554948,8.3851126 5.3535155,8.1445126 5.182276,7.9399821 5.0533975,7.6871271 5.0166015,7.2285001 Z M 16.983398,14.2285 c -0.0368,0.458627 -0.165674,0.711479 -0.336914,0.916015 -0.201432,0.2406 -0.517094,0.438574 -0.90625,0.579102 -0.778311,0.281057 -1.657226,0.256836 -1.657226,0.256836 A 1.50015,1.50015 0 0 0 14,15.9785 l -8.5,0 A 1.50015,1.50015 0 0 0 4.0009765,17.724594 1.50015,1.50015 0 0 1 5.5,16.4785 l 8.5,0 a 1.50015,1.50015 0 0 1 0.08301,0.002 c 0,0 0.878915,0.02422 1.657226,-0.256836 0.389156,-0.140528 0.704818,-0.338502 0.90625,-0.579102 C 16.847917,15.403915 17,15.116 17,14.4785 c 0,-0.09556 -0.01011,-0.169135 -0.0166,-0.25 z"/>
 <path style="fill:none;stroke:#ffc73a;stroke-width:3;stroke-linecap:round;stroke-linejoin:round" d="m 11.500154,1.4785001 0,16.9999999 0,1"/>
 <path style="opacity:0.2;fill:#ffffff;fill-rule:evenodd" d="M 11.477693,-0.04298436 A 1.50015,1.50015 0 0 0 10.000154,1.4785001 l 0,0.5 a 1.50015,1.50015 0 0 1 1.477539,-1.52148443 1.50015,1.50015 0 0 1 1.522461,1.52148443 l 0,-0.5 a 1.50015,1.50015 0 0 0 -1.522461,-1.52148446 z"/>
</svg>
